X: 1
T: l'Anguille - Rond de St. Vincent
C: G. Hervieux
Z: 2019 John Chambers <jc:trillian.mit.edu>
S: NEFFA 2019 French Jam handout p.13 #1
M: 2/4
L: 1/8
K: Ador
E EE |\
"Am"A2 A2 | "G"G2 "(Dm)"AB | "Am"cA "Em"B2 | "Am"AG FE |\
A2 A2 | "G"G2 "Dm"AB | "Am"cA "Em"B2 | "Am"A :|
|: A AA |\
c2 c2 | "G"B2 "Dm"AA | "G"BA GF | "Em"EE EE |\
"Am"A2 A2 | "G"G2 "Am"AB | cA "Em"B2 | "Am"A :|
